X: 9834
T: Dennis Cooney's
R: jig
M: 6/8
K: Dminor
E|:FEF DCA,|FEF G^FG|A2d cAG|FD=B, CAG|
FEF DCA,|FEF G^FG|A2d cAG|FDD D2 E:|
|:FEF G^FG|A2d cAG|FEF G^FG|Ad^c d2 e|
f2d edc|ded cAG|FEF AGF|EGE D2 E:|
E|:FEF DCA,|~F3 G^FG|A/c/Ad cAG|FD=B, CAG|
~F3 DCA,|~F3 G^FG|A/c/Ad cAG|FDD D2 E:|
|:~F3 G^FG|A/c/Ad cAG|~F3 G^FG|Ad^c d2 e|
~f3 edc|ded cAG|~F3 AGF|E/F/GE D2 E:|

